<?xml version="1.0" encoding="UTF-8"?>
<map version="1.10" tiledversion="1.11.2" orientation="orthogonal" renderorder="right-down" width="20" height="13" tilewidth="32" tileheight="32" infinite="0" nextlayerid="5" nextobjectid="5">
 <layer id="1" name="Tile Layer 1" width="20" height="13">
  <data encoding="csv">
0,0,0,0,0,0,0,0,0,0,0,0,0,0,0,0,0,0,0,0,
0,0,0,0,0,0,0,0,0,0,0,0,0,0,0,0,0,0,0,0,
0,0,0,0,0,0,0,0,0,0,0,0,0,0,0,0,0,0,0,0,
0,0,0,0,0,0,0,0,0,0,0,0,0,0,0,0,0,0,0,0,
0,0,0,0,0,0,0,0,0,0,0,0,0,0,0,0,0,0,0,0,
0,0,0,0,0,0,0,0,0,0,0,0,0,0,0,0,0,0,0,0,
0,0,0,0,0,0,0,0,0,0,0,0,0,0,0,0,0,0,0,0,
0,0,0,0,0,0,0,0,0,0,0,0,0,0,0,0,0,0,0,0,
0,0,0,0,0,0,0,0,0,0,0,0,0,0,0,0,0,0,0,0,
0,0,0,0,0,0,0,0,0,0,0,0,0,0,0,0,0,0,0,0,
0,0,0,0,0,0,0,0,0,0,0,0,0,0,0,0,0,0,0,0,
0,0,0,0,0,0,0,0,0,0,0,0,0,0,0,0,0,0,0,0,
0,0,0,0,0,0,0,0,0,0,0,0,0,0,0,0,0,0,0,0
</data>
 </layer>
 <imagelayer id="2" name="track" offsetx="7.3761" offsety="0">
  <image source="G:/Shared drives/Arrosh is restarting/LibGDX/assets/ui/track.png" width="626" height="417"/>
 </imagelayer>
 <objectgroup id="4" name="track">
  <object id="3" x="65" y="106">
   <polygon points="0,0 0,222 7,240 24,258 46.5,266 75,268 98.5,261 113,247.5 120,233.5 121.5,216.5 127,203.5 137,198.5 153.5,198.5 166,204 172,214 173,226 182,247.5 199.5,263.5 216,268.5 254.5,268.5 301.5,268 332.5,268.5 388.5,267.5 429,268 469,266.5 494.5,256 504,242.5 509,223 508,208 498.5,192.5 484,175.5 445.5,170.5 408.5,165.5 379.5,161.5 360,158.5 399.5,155.5 431,155.5 455.5,155.5 477,154 494.5,142.5 505.5,124.5 508.5,108.5 507.5,91.5 495.5,77 479,62.5 464,57 429,59.5 381.5,61.5 340.5,58.5 333.5,52.5 333.5,46 340.5,41.5 402,40.5 469.5,41 494,28 506.5,8.5 509,-21 500.5,-38.5 487.5,-48 468.5,-58.5 264,-57.5 175.5,-56 157.5,-47 148,-32 148,-16.5 157,3.5 174,13 242,14 176,16.5 155.5,30.5 147,48.5 147.5,74 154.5,88.5 172.5,102 198,108 249.5,109 257.5,109.5 265.5,118.5 261.5,126 256.5,132 201.5,131 173,128.5 152,115.5 136,94.5 133,61 132.5,31.5 132.5,-4 123.5,-22.5 107.5,-42 83.5,-54.5 59,-59.5 34,-49.5 15.5,-34.5"/>
  </object>
 </objectgroup>
</map>
